X:1
T:Title
%%score { ( 1 4 ) | ( 2 3 ) }
L:1/8
Q:1/4=144
M:6/4
K:G
V:1 treble nm="Grand Piano"
V:4 treble 
V:2 bass 
V:3 bass 
V:1
 [DB]6 [Ec]4 [DB]2 | [EA]4 [CE]2 [EA]6 | G4 F2 [G,CE]4 [A,CF]2 | G6 z6 | [DB]6 [Ec]4 [DB]2 | %5
w: Aldine~S.~Kieffer * *|||||
 [EA]4 [CE]2 [EA]6 | G4 F2 B4- B[CFA] | [B,G]12 | [Ec]6 [Ec]4 [Ec]2 | [EG]4 [^DA]2 [=DB]6 | %10
w: |||||
 [Fd]6 [FA]4 [GB]2 | [FA]12 | [DB]6 [Ec]4 [DB]2 | [EA]4 [CE]2 [EA]6 | G4 F2 B4- B[FA] | [B,G]12 |] %16
w: ||||||
V:2
 [G,,G,]6 [G,,G,]4 [G,,G,]2 | [C,G,]4 [C,G,]2 [C,G,]6 | .B,6 z6 | z6 .D6 | %4
 [G,,G,]6 [G,,G,]4 [G,,G,]2 | [C,G,]4 [C,G,]2 [C,G,]6 | [D,B,D]6 [D,G,D]4- [D,G,D]D, | G,,12 | %8
 C,6 [C,G,]4 [C,G,]2 | [C,G,]4 [C,G,]2 [G,,G,]6 | [D,A,]6 [D,D]4 [D,D]2 | [D,D]12 | %12
 [G,,G,]6 [G,,G,]4 [G,,G,]2 | [C,G,]4 [C,G,]2 [C,G,]6 | [D,B,D]4 [D,A,D]2 [D,G,D]4- [D,G,D][D,C] | %15
 [G,,G,]12 |] %16
V:3
 x12 | x12 | [D,D]4- [D,A,D]2 D,4 D,2 | G,,12 | x12 | x12 | x12 | x12 | x12 | x12 | x12 | x12 | %12
 x12 | x12 | x12 | x12 |] %16
V:4
 x12 | x12 | x12 | [G,B,]12 | x12 | x12 | x12 | G,12- | G,6 z6 | x12 | x12 | x12 | x12 | x12 | %14
 x12 | x12 |] %16

